X:1
T: Chinese Dance
C:
R:Reel
Q: 232
K:A
M:4/4
L:1/8
c|:A2 a2 g2 f2|ef ed c2 e2|c2 e2 c2 e2|d2 B2 B2 cB|
A2 a2 g2 f2|ef ed c2 e2|c2 e2 dc dB|A2 c2 A2 cB:|
|:G2 B2 G2 B2|G2 B2 dc dB|A2 c2 A2 c2|A2 c2 e2 fg|
a2 a2 e2 fg|a2 a2 e2 fg|a2 e2 d2 c2|1BA Bc Bd cB:|2BA Bc A3||
